X: 44
T: Missa N'as tu pas &mdash; Agnus
C: Gaspar van Weerbeke
%%abc-version 2.0
%%abcx-abcm2ps-target-version 5.9.1 (29 Sep 2008)
%%abc-creator hum2abc beta
%%abcx-conversion-date 2022/03/06 13:05:56
%%abc-copyright Copyright 2016, Kolb, Paul
%%abc-edited-by Zybina, Karina
%%humdrum-veritas 4189361332
%%humdrum-veritas-data 1765571629
%%linebreak <none>
%%barnumbers 0
L: 1/4
M: 2/2
N: Derived from Gas0203e-Missa_Nas_tu_pas-Agnus.krn
%%staves [1 2 3 4]
V: 1 clef=treble
V: 2 clef=treble-8
V: 3 clef=treble-8
V: 4 clef=bass
K: F
[V:1] z4 | 
[V:2] F2A3/B/ | 
[V:3] z4 | 
[V:4] F,2F,3/E,/ | 
[V:1] z4 | 
[V:2] cFA3/B/ | 
[V:3] z4 | 
[V:4] C,D,2C,/B,,/ | 
[V:1] z4 | 
[V:2] c/B/A/G/Ac- | 
[V:3] z4 | 
[V:4] A,,>B,, C,/B,,/A,,/G,,/ | 
[V:1] z4 | 
[V:2] cB/A/G2 | 
[V:3] z4 | 
[V:4] F,,F,2E, | 
[V:1] F2A3/B/ | 
[V:2] F2f3/e/ | 
[V:3] c2c/B/A/G/ | 
[V:4] F,4- | 
[V:1] cFA3/B/ | 
[V:2] cd2c/B/ | 
[V:3] AD2F- | 
[V:4] F,4- | 
[V:1] c/B/A/G/Ac- | 
[V:2] A>B c/B/A/G/ | 
[V:3] F/G/AF2 | 
[V:4] F,4 | 
[V:1] cB/A/B2 | 
[V:2] Ff2e | 
[V:3] Ac2B | 
[V:4] F,2G,2 | 
[V:1] A2BA- | 
[V:2] f2zF- | 
[V:3] c2d2- | 
[V:4] F,2D,2- | 
[V:1] AG/F/EC | 
[V:2] F/G/A/B/ c/d/e/f/ | 
[V:3] d2Gc- | 
[V:4] D,2C,2 | 
[V:1] z4 | 
[V:2] e>d B/A/d- | 
[V:3] cB/A/GA | 
[V:4] C,/D,/E,/F,/G,F, | 
[V:1] z4 | 
[V:2] dc2=B | 
[V:3] BG2F | 
[V:4] G,E,D,2 | 
[V:1] E>FGA- | 
[V:2] c3c | 
[V:3] G2EF- | 
[V:4] C,2zF,,- | 
[V:1] AG/F/EC | 
[V:2] Ac2B/A/ | 
[V:3] FE/D/CG- | 
[V:4] F,,/G,,/A,,/B,,/C,2 | 
[V:1] DCD2 | 
[V:2] BA2G | 
[V:3] Gc2B | 
[V:4] G,,A,,B,,2 | 
[V:1] zAAA | 
[V:2] A>Bcd | 
[V:3] c2A2 | 
[V:4] F,,F,F,F, | 
[V:1] G>A B/c/d- | 
[V:2] ed2f- | 
[V:3] zB2A | 
[V:4] E,G,>F,D, | 
[V:1] dcB3/G/ | 
[V:2] fed3/e/ | 
[V:3] BG>AB | 
[V:4] B,,C,G,2 | 
[V:1] A4 ||  
[V:2] f4 ||  
[V:3] c4 ||  
[V:4] [F,,4F,4] ||  
[V:1] [M:2/2]z4 | 
[V:2] [M:2/2]z4 | 
[V:3] [M:2/2]z4 | 
[V:4] [M:2/2]C,3C, | 
[V:1] z4 | 
[V:2] z4 | 
[V:3] F3F | 
[V:4] D,>C,B,,A,, | 
[V:1] z4 | 
[V:2] z4 | 
[V:3] G>FED | 
[V:4] G,,2zF, | 
[V:1] z4 | 
[V:2] z4 | 
[V:3] C2zB | 
[V:4] G,>F,E,D, | 
[V:1] z4 | 
[V:2] z4 | 
[V:3] c>BAG | 
[V:4] C,F,2E, | 
[V:1] z4 | 
[V:2] z4 | 
[V:3] FB2A | 
[V:4] D,B,,C,2 | 
[V:1] z4 | 
[V:2] z4 | 
[V:3] GEFG- | 
[V:4] B,,C,A,,B,, | 
[V:1] z4 | 
[V:2] z4 | 
[V:3] GF2E | 
[V:4] C,A,,G,,2 | 
[V:1] z2A3/B/ | 
[V:2] A>B c/d/c | 
[V:3] F2z2 | 
[V:4] F,,2z2 | 
[V:1] c/d/cA3/B/ | 
[V:2] A>B c/d/c | 
[V:3] z4 | 
[V:4] z4 | 
[V:1] c/d/cF3/G/ | 
[V:2] F>GAB | 
[V:3] z4 | 
[V:4] z4 | 
[V:1] ABAG | 
[V:2] AGc3/B/ | 
[V:3] z4 | 
[V:4] z4 | 
[V:1] c>B A/G/F | 
[V:2] A/G/Fz2 | 
[V:3] z4 | 
[V:4] z2F,,3/G,,/ | 
[V:1] z4 | 
[V:2] z4 | 
[V:3] F>GAB | 
[V:4] A,,B,,A,,G,, | 
[V:1] z4 | 
[V:2] z4 | 
[V:3] AGc3/B/ | 
[V:4] C,>B,,A,,2 | 
[V:1] z4 | 
[V:2] z4 | 
[V:3] A2dc/A/ | 
[V:4] D,C,/A,,/B,,A,,/F,,/ | 
[V:1] z2BA/F/ | 
[V:2] z2dc/A/ | 
[V:3] BAz2 | 
[V:4] G,,A,,z2 | 
[V:1] GAdc/A/ | 
[V:2] BABA/F/ | 
[V:3] z4 | 
[V:4] z4 | 
[V:1] BA2G | 
[V:2] GAd2 | 
[V:3] z2B2 | 
[V:4] z4 | 
[V:1] A>BAG | 
[V:2] d2zd- | 
[V:3] A>GAB | 
[V:4] D,>G,,D,G,, | 
[V:1] A>BAG/F/ | 
[V:2] dc/B/c2 | 
[V:3] A>GAB | 
[V:4] D,>G,F,E,/D,/ | 
[V:1] E2D2- | 
[V:2] zcd/c/B/A/ | 
[V:3] c2B2- | 
[V:4] C,2G,2- | 
[V:1] DG2F/E/ | 
[V:2] G2z2 | 
[V:3] B4 | 
[V:4] G,_E,2D,/C,/ | 
[V:1] D>EFG | 
[V:2] f>e d/c/B | 
[V:3] B4- | 
[V:4] B,,>C,D,G,,/A,,/ | 
[V:1] DFDF | 
[V:2] GFGD | 
[V:3] B4- | 
[V:4] B,,/C,/D,G,,D, | 
[V:1] GB>AF/G/ | 
[V:2] z2d2 | 
[V:3] B4 | 
[V:4] _E,>D, B,,/C,/D,/E,/ | 
[V:1] A>G _E/F/G- | 
[V:2] cf_e3/d/ | 
[V:3] A>Bc3/B/ | 
[V:4] F,>_E, C,/D,/E,- | 
[V:1] G/F/D/E<FE/ | 
[V:2] B/c<dc/A/B/ | 
[V:3] G/A<BA/F/G/ | 
[V:4] E,/D,/B,,/C,<D,C,/ | 
[V:1] CF2E/D/ | 
[V:2] c4 | 
[V:3] A3F | 
[V:4] A,,F,,>G,,A,,/F,,/ | 
[V:1] E4 ||  
[V:2] c4 ||  
[V:3] G4 ||  
[V:4] C,4 ||  
[V:1] [M:2/2]z2F2 | 
[V:2] [M:2/2]z4 | 
[V:3] [M:2/2]F2A3/B/ | 
[V:4] [M:2/2]z4 | 
[V:1] A2B2 | 
[V:2] z4 | 
[V:3] cFG2 | 
[V:4] z4 | 
[V:1] c>B A/G/F | 
[V:2] F4 | 
[V:3] A2F/G/A/B/ | 
[V:4] z4 | 
[V:1] ECD/E/F/G/ | 
[V:2] A2B2 | 
[V:3] cAG2 | 
[V:4] z4 | 
[V:1] A>GFE/D/ | 
[V:2] c>B A/G/F | 
[V:3] F2zA- | 
[V:4] z2F,,2 | 
[V:1] C2F2 | 
[V:2] ECD2 | 
[V:3] A/B/cB2 | 
[V:4] A,,2B,,2 | 
[V:1] E4 | 
[V:2] Cc>BA- | 
[V:3] G2A3/G/ | 
[V:4] C,>B,,A,,C,- | 
[V:1] z4 | 
[V:2] AG/F/GA | 
[V:3] ECDE | 
[V:4] C,B,,/A,,/B,,A,, | 
[V:1] c2Ac- | 
[V:2] z4 | 
[V:3] Cc2A- | 
[V:4] z4 | 
[V:1] cB/A/BA- | 
[V:2] z4 | 
[V:3] AG/F/GA | 
[V:4] z4 | 
[V:1] Ac>BA- | 
[V:2] z4 | 
[V:3] c2Ac- | 
[V:4] z4 | 
[V:1] AG/F/GA | 
[V:2] z4 | 
[V:3] cB/A/BA | 
[V:4] z4 | 
[V:1] z4 | 
[V:2] c2B/c/d/e/ | 
[V:3] z4 | 
[V:4] A,,2G,,/A,,/B,,/C,/ | 
[V:1] z4 | 
[V:2] fe>cd | 
[V:3] z4 | 
[V:4] D,C,2=B,, | 
[V:1] E2D/E/F/G/ | 
[V:2] G2z2 | 
[V:3] c2Bd- | 
[V:4] C,/D,/E,/F,/G,F, | 
[V:1] AG2^F | 
[V:2] zd3 | 
[V:3] dBA2 | 
[V:4] D,G,D,2 | 
[V:1] G/A/B/c/dc- | 
[V:2] e/d/g2e | 
[V:3] G>FDE/F/ | 
[V:4] G,,>A,,B,,C, | 
[V:1] c=Bc2 | 
[V:2] d2c2 | 
[V:3] G2C/D/E/F/ | 
[V:4] G,,2A,,C,- | 
[V:1] z4 | 
[V:2] z4 | 
[V:3] GF2E | 
[V:4] C,A,,G,,2 | 
[V:1] A>BAG | 
[V:2] c>Bcd/e/ | 
[V:3] F>GAB | 
[V:4] F,,2F,G,/E,/ | 
[V:1] Az/ B/AG | 
[V:2] cBd2- | 
[V:3] AGAz/ B/ | 
[V:4] F,G,D,G,, | 
[V:1] Az/ B/AG | 
[V:2] ddfd | 
[V:3] AGAB/c/ | 
[V:4] D,z/ G,/F,G, | 
[V:1] B/A/B/A/ G/F/E/D/ | 
[V:2] fde2 | 
[V:3] dBc2 | 
[V:4] D,G,C,2 | 
[V:1] E2C/D/E/F/ | 
[V:2] c2z2 | 
[V:3] GcAc- | 
[V:4] C,2F,E, | 
[V:1] G/A/B/c/AG- | 
[V:2] _ef_e_e- | 
[V:3] cdcB | 
[V:4] C,B,,C,_E,- | 
[V:1] GF2E | 
[V:2] e/d/c3 | 
[V:3] cAG2 | 
[V:4] E,F,C,2 | 
[V:1] F4 |]  
[V:2] c4 |]  
[V:3] F4 |]  
[V:4] F,,4 |]  


